public/images/icons/Basket.svg

<svg width="50" height="46" viewBox="0 0 50 46" fill="none" xmlns="http://www.w3.org/2000/svg">
<mask id="mask0" mask-type="alpha" maskUnits="userSpaceOnUse" x="0" y="0" width="50" height="46">
<path d="M36.3915 16.7828L26.8031 1.28953C26.3872 0.628227 25.6866 0.297577 24.9861 0.297577C24.2856 0.297577 23.5851 0.628227 23.1691 1.31314L13.5807 16.7828H3.09477C1.89075 16.7828 0.90564 17.8456 0.90564 19.1446C0.90564 19.3572 0.927531 19.5697 0.993205 19.7823L6.55361 41.676C7.05711 43.6599 8.74274 45.1242 10.7567 45.1242H39.2155C41.2295 45.1242 42.9151 43.6599 43.4405 41.676L49.0009 19.7823L49.0666 19.1446C49.0666 17.8456 48.0815 16.7828 46.8775 16.7828H36.3915ZM18.4187 16.7828L24.9861 6.39097L31.5535 16.7828H18.4187ZM24.9861 35.6771C22.5781 35.6771 20.6078 33.5515 20.6078 30.9535C20.6078 28.3555 22.5781 26.2299 24.9861 26.2299C27.3942 26.2299 29.3644 28.3555 29.3644 30.9535C29.3644 33.5515 27.3942 35.6771 24.9861 35.6771Z" fill="url(#paint0_linear)"/>
<rect x="16.6198" y="24.095" width="16.7618" height="12.5713" fill="url(#paint1_linear)"/>
</mask>
<g mask="url(#mask0)">
<g filter="url(#filter0_d)">
<rect x="-44.6813" y="47.6337" width="32.4806" height="139.091" transform="rotate(-90 -44.6813 47.6337)" fill="#FFCB7C"/>
<rect x="-44.6813" y="26.2198" width="32.4806" height="139.091" transform="rotate(-90 -44.6813 26.2198)" fill="#86B6E2"/>
<rect x="-44.6813" y="67.6165" width="32.4806" height="139.091" transform="rotate(-90 -44.6813 67.6165)" fill="#EC9F9F"/>
</g>
</g>
<defs>
<filter id="filter0_d" x="-44.6813" y="-10.2609" width="143.091" height="77.8773" filterUnits="userSpaceOnUse" color-interpolation-filters="sRGB">
<feFlood flood-opacity="0" result="BackgroundImageFix"/>
<feColorMatrix in="SourceAlpha" type="matrix" values="0 0 0 0 0 0 0 0 0 0 0 0 0 0 0 0 0 0 127 0"/>
<feOffset dx="4" dy="-4"/>
<feColorMatrix type="matrix" values="0 0 0 0 0.360784 0 0 0 0 0.34902 0 0 0 0 0.333333 0 0 0 1 0"/>
<feBlend mode="normal" in2="BackgroundImageFix" result="effect1_dropShadow"/>
<feBlend mode="normal" in="SourceGraphic" in2="effect1_dropShadow" result="shape"/>
</filter>
<linearGradient id="paint0_linear" x1="-6.3185" y1="10.1594" x2="54.9777" y2="39.4787" gradientUnits="userSpaceOnUse">
<stop offset="0.265625" stop-color="#7FA1C5"/>
<stop offset="0.526042" stop-color="#DDA960"/>
<stop offset="0.859375" stop-color="#CC8B8C"/>
</linearGradient>
<linearGradient id="paint1_linear" x1="14.1055" y1="26.8607" x2="33.4894" y2="38.3671" gradientUnits="userSpaceOnUse">
<stop offset="0.265625" stop-color="#7FA1C5"/>
<stop offset="0.526042" stop-color="#DDA960"/>
<stop offset="0.859375" stop-color="#CC8B8C"/>
</linearGradient>
</defs>
</svg>

<svg xmlns="http://www.w3.org/2000/svg" width="50" height="46" fill="none"  xmlns:v="https://vecta.io/nano"><mask id="A" mask-type="alpha" maskUnits="userSpaceOnUse" x="0" y="0" width="50" height="46"><path d="M36.392 16.783L26.803 1.29c-.416-.661-1.117-.992-1.817-.992s-1.401.331-1.817 1.016l-9.588 15.47H3.095c-1.204 0-2.189 1.063-2.189 2.362 0 .213.022.425.088.638l5.56 21.894c.503 1.984 2.189 3.448 4.203 3.448h28.459c2.014 0 3.7-1.464 4.225-3.448l5.56-21.894.066-.638c0-1.299-.985-2.362-2.189-2.362H36.392zm-17.973 0l6.567-10.392 6.567 10.392H18.419zm6.567 18.894c-2.408 0-4.378-2.126-4.378-4.724s1.97-4.724 4.378-4.724 4.378 2.126 4.378 4.724-1.97 4.724-4.378 4.724z" fill="url(#C)"/><path fill="url(#D)" d="M16.62 24.095h16.762v12.571H16.62z"/></mask><g mask="url(#A)"><g filter="url(#B)"><path transform="rotate(270 -44.681 47.634)" fill="#ffcb7c" d="M-44.681 47.634h32.481v139.091h-32.481z"/><path transform="rotate(270 -44.681 26.22)" fill="#86b6e2" d="M-44.681 26.22h32.481v139.091h-32.481z"/><path transform="rotate(270 -44.681 67.617)" fill="#ec9f9f" d="M-44.681 67.617h32.481v139.091h-32.481z"/></g></g><defs><filter id="B" x="-44.681" y="-10.261" width="143.091" height="77.877" filterUnits="userSpaceOnUse" color-interpolation-filters="sRGB"><feFlood flood-opacity="0" result="A"/><feColorMatrix in="SourceAlpha" values="0 0 0 0 0 0 0 0 0 0 0 0 0 0 0 0 0 0 127 0"/><feOffset dx="4" dy="-4"/><feColorMatrix values="0 0 0 0 0.360784 0 0 0 0 0.34902 0 0 0 0 0.333333 0 0 0 1 0"/><feBlend in2="A"/><feBlend in="SourceGraphic"/></filter><linearGradient id="C" x1="-6.318" y1="10.159" x2="54.978" y2="39.479" gradientUnits="userSpaceOnUse"><stop offset=".266" stop-color="#7fa1c5"/><stop offset=".526" stop-color="#dda960"/><stop offset=".859" stop-color="#cc8b8c"/></linearGradient><linearGradient id="D" x1="14.106" y1="26.861" x2="33.489" y2="38.367" gradientUnits="userSpaceOnUse"><stop offset=".266" stop-color="#7fa1c5"/><stop offset=".526" stop-color="#dda960"/><stop offset=".859" stop-color="#cc8b8c"/></linearGradient></defs></svg>
